img/entrance-logo.svg

<svg width="217" height="37" viewBox="0 0 217 37" fill="none" xmlns="http://www.w3.org/2000/svg">
<path d="M22.1839 29H15.9829L6.23286 16.208V29H0.850857V1.7H6.23286V13.751L15.5929 1.7H21.7939L11.6929 14.96L22.1839 29ZM25.94 21.317C26.616 23.761 28.449 24.983 31.439 24.983C33.363 24.983 34.819 24.333 35.807 23.033L39.863 25.373C37.939 28.155 35.105 29.546 31.361 29.546C28.137 29.546 25.55 28.571 23.6 26.621C21.65 24.671 20.675 22.214 20.675 19.25C20.675 16.312 21.637 13.868 23.561 11.918C25.485 9.942 27.955 8.954 30.971 8.954C33.831 8.954 36.184 9.942 38.03 11.918C39.902 13.894 40.838 16.338 40.838 19.25C40.838 19.9 40.773 20.589 40.643 21.317H25.94ZM25.862 17.417H35.807C35.521 16.091 34.923 15.103 34.013 14.453C33.129 13.803 32.115 13.478 30.971 13.478C29.619 13.478 28.501 13.829 27.617 14.531C26.733 15.207 26.148 16.169 25.862 17.417ZM47.0595 15.038C47.0595 15.558 47.3975 15.987 48.0735 16.325C48.7755 16.637 49.6205 16.923 50.6085 17.183C51.5965 17.417 52.5845 17.729 53.5725 18.119C54.5605 18.483 55.3925 19.107 56.0685 19.991C56.7705 20.875 57.1215 21.98 57.1215 23.306C57.1215 25.308 56.3675 26.855 54.8595 27.947C53.3775 29.013 51.5185 29.546 49.2825 29.546C45.2785 29.546 42.5485 27.999 41.0925 24.905L45.4605 22.448C46.0325 24.138 47.3065 24.983 49.2825 24.983C51.0765 24.983 51.9735 24.424 51.9735 23.306C51.9735 22.786 51.6225 22.37 50.9205 22.058C50.2445 21.72 49.4125 21.421 48.4245 21.161C47.4365 20.901 46.4485 20.576 45.4605 20.186C44.4725 19.796 43.6275 19.185 42.9255 18.353C42.2495 17.495 41.9115 16.429 41.9115 15.155C41.9115 13.231 42.6135 11.723 44.0175 10.631C45.4475 9.513 47.2155 8.954 49.3215 8.954C50.9075 8.954 52.3505 9.318 53.6505 10.046C54.9505 10.748 55.9775 11.762 56.7315 13.088L52.4415 15.428C51.8175 14.102 50.7775 13.439 49.3215 13.439C48.6715 13.439 48.1255 13.582 47.6835 13.868C47.2675 14.154 47.0595 14.544 47.0595 15.038ZM77.1659 29H71.3159L64.2179 20.147V29H59.1869V1.7H64.2179V18.08L70.9259 9.5H76.9319L69.0929 19.133L77.1659 29ZM81.0032 7.16C80.1712 7.16 79.4432 6.861 78.8192 6.263C78.2212 5.639 77.9222 4.911 77.9222 4.079C77.9222 3.247 78.2212 2.519 78.8192 1.895C79.4432 1.271 80.1712 0.958998 81.0032 0.958998C81.8612 0.958998 82.5892 1.271 83.1872 1.895C83.8112 2.519 84.1232 3.247 84.1232 4.079C84.1232 4.911 83.8112 5.639 83.1872 6.263C82.5892 6.861 81.8612 7.16 81.0032 7.16ZM78.5072 29V9.5H83.5382V29H78.5072ZM86.9729 29V0.529999H92.0039V29H86.9729ZM108.153 9.5H113.535L106.437 29C105.423 31.808 104.071 33.836 102.381 35.084C100.717 36.358 98.6367 36.93 96.1407 36.8V32.12C97.4927 32.146 98.5587 31.86 99.3387 31.262C100.145 30.664 100.782 29.702 101.25 28.376L93.2547 9.5H98.7537L103.824 22.604L108.153 9.5ZM128.817 9.5H133.848V29H128.817V26.699C127.309 28.597 125.19 29.546 122.46 29.546C119.86 29.546 117.624 28.558 115.752 26.582C113.906 24.58 112.983 22.136 112.983 19.25C112.983 16.364 113.906 13.933 115.752 11.957C117.624 9.955 119.86 8.954 122.46 8.954C125.19 8.954 127.309 9.903 128.817 11.801V9.5ZM119.535 23.228C120.549 24.242 121.836 24.749 123.396 24.749C124.956 24.749 126.243 24.242 127.257 23.228C128.297 22.188 128.817 20.862 128.817 19.25C128.817 17.638 128.297 16.325 127.257 15.311C126.243 14.271 124.956 13.751 123.396 13.751C121.836 13.751 120.549 14.271 119.535 15.311C118.521 16.325 118.014 17.638 118.014 19.25C118.014 20.862 118.521 22.188 119.535 23.228ZM142.505 28.532C141.855 29.182 141.075 29.507 140.165 29.507C139.255 29.507 138.475 29.182 137.825 28.532C137.175 27.882 136.85 27.102 136.85 26.192C136.85 25.282 137.175 24.502 137.825 23.852C138.475 23.202 139.255 22.877 140.165 22.877C141.075 22.877 141.855 23.202 142.505 23.852C143.155 24.502 143.48 25.282 143.48 26.192C143.48 27.102 143.155 27.882 142.505 28.532Z" fill="#0F1435"/>
<path d="M155.788 29.546C152.85 29.546 150.393 28.558 148.417 26.582C146.467 24.606 145.492 22.162 145.492 19.25C145.492 16.338 146.467 13.894 148.417 11.918C150.393 9.942 152.85 8.954 155.788 8.954C157.686 8.954 159.415 9.409 160.975 10.319C162.535 11.229 163.718 12.451 164.524 13.985L160.195 16.52C159.805 15.714 159.207 15.077 158.401 14.609C157.621 14.141 156.737 13.907 155.749 13.907C154.241 13.907 152.993 14.414 152.005 15.428C151.017 16.416 150.523 17.69 150.523 19.25C150.523 20.784 151.017 22.058 152.005 23.072C152.993 24.06 154.241 24.554 155.749 24.554C156.763 24.554 157.66 24.333 158.44 23.891C159.246 23.423 159.844 22.786 160.234 21.98L164.602 24.476C163.744 26.01 162.535 27.245 160.975 28.181C159.415 29.091 157.686 29.546 155.788 29.546ZM182.402 26.582C180.4 28.558 177.956 29.546 175.07 29.546C172.184 29.546 169.74 28.558 167.738 26.582C165.762 24.58 164.774 22.136 164.774 19.25C164.774 16.364 165.762 13.933 167.738 11.957C169.74 9.955 172.184 8.954 175.07 8.954C177.956 8.954 180.4 9.955 182.402 11.957C184.404 13.933 185.405 16.364 185.405 19.25C185.405 22.136 184.404 24.58 182.402 26.582ZM171.287 23.111C172.301 24.125 173.562 24.632 175.07 24.632C176.578 24.632 177.839 24.125 178.853 23.111C179.867 22.097 180.374 20.81 180.374 19.25C180.374 17.69 179.867 16.403 178.853 15.389C177.839 14.375 176.578 13.868 175.07 13.868C173.562 13.868 172.301 14.375 171.287 15.389C170.299 16.403 169.805 17.69 169.805 19.25C169.805 20.81 170.299 22.097 171.287 23.111ZM209.341 8.954C211.577 8.954 213.358 9.682 214.684 11.138C216.036 12.594 216.712 14.544 216.712 16.988V29H211.681V17.339C211.681 16.169 211.395 15.259 210.823 14.609C210.251 13.959 209.445 13.634 208.405 13.634C207.261 13.634 206.364 14.011 205.714 14.765C205.09 15.519 204.778 16.611 204.778 18.041V29H199.747V17.339C199.747 16.169 199.461 15.259 198.889 14.609C198.317 13.959 197.511 13.634 196.471 13.634C195.353 13.634 194.456 14.011 193.78 14.765C193.13 15.519 192.805 16.611 192.805 18.041V29H187.774V9.5H192.805V11.567C193.975 9.825 195.782 8.954 198.226 8.954C200.618 8.954 202.386 9.89 203.53 11.762C204.83 9.89 206.767 8.954 209.341 8.954Z" fill="#232E73"/>
</svg>

<svg width="217" height="37" fill="none" xmlns="http://www.w3.org/2000/svg"><path d="M22.184 29h-6.201l-9.75-12.792V29H.85V1.7h5.382v12.051L15.593 1.7h6.2l-10.1 13.26L22.183 29zm3.756-7.683c.676 2.444 2.509 3.666 5.499 3.666 1.924 0 3.38-.65 4.368-1.95l4.056 2.34c-1.924 2.782-4.758 4.173-8.502 4.173-3.224 0-5.811-.975-7.761-2.925-1.95-1.95-2.925-4.407-2.925-7.371 0-2.938.962-5.382 2.886-7.332 1.924-1.976 4.394-2.964 7.41-2.964 2.86 0 5.213.988 7.059 2.964 1.872 1.976 2.808 4.42 2.808 7.332 0 .65-.065 1.339-.195 2.067H25.94zm-.078-3.9h9.945c-.286-1.326-.884-2.314-1.794-2.964-.884-.65-1.898-.975-3.042-.975-1.352 0-2.47.351-3.354 1.053-.884.676-1.469 1.638-1.755 2.886zm21.198-2.379c0 .52.337.949 1.014 1.287.702.312 1.547.598 2.535.858.987.234 1.975.546 2.963.936.988.364 1.82.988 2.496 1.872.703.884 1.053 1.989 1.053 3.315 0 2.002-.754 3.549-2.262 4.641-1.482 1.066-3.34 1.599-5.577 1.599-4.003 0-6.733-1.547-8.19-4.641l4.369-2.457c.572 1.69 1.846 2.535 3.822 2.535 1.794 0 2.69-.559 2.69-1.677 0-.52-.35-.936-1.053-1.248-.675-.338-1.508-.637-2.495-.897a26.3 26.3 0 01-2.964-.975 6.303 6.303 0 01-2.535-1.833c-.677-.858-1.015-1.924-1.015-3.198 0-1.924.703-3.432 2.106-4.524 1.43-1.118 3.198-1.677 5.304-1.677 1.587 0 3.03.364 4.33 1.092 1.3.702 2.326 1.716 3.08 3.042l-4.29 2.34c-.623-1.326-1.663-1.989-3.12-1.989-.65 0-1.195.143-1.637.429-.416.286-.624.676-.624 1.17zM77.166 29h-5.85l-7.098-8.853V29h-5.031V1.7h5.03v16.38l6.709-8.58h6.006l-7.84 9.633L77.167 29zm3.837-21.84c-.832 0-1.56-.299-2.184-.897-.598-.624-.897-1.352-.897-2.184 0-.832.3-1.56.897-2.184.624-.624 1.352-.936 2.184-.936a2.91 2.91 0 012.184.936c.624.624.936 1.352.936 2.184 0 .832-.312 1.56-.936 2.184-.598.598-1.326.897-2.184.897zM78.507 29V9.5h5.031V29h-5.03zm8.466 0V.53h5.03V29h-5.03zm21.18-19.5h5.382L106.437 29c-1.014 2.808-2.366 4.836-4.056 6.084-1.664 1.274-3.744 1.846-6.24 1.716v-4.68c1.352.026 2.418-.26 3.198-.858.806-.598 1.443-1.56 1.911-2.886L93.255 9.5h5.499l5.07 13.104L108.153 9.5zm20.664 0h5.031V29h-5.031v-2.301c-1.508 1.898-3.627 2.847-6.357 2.847-2.6 0-4.836-.988-6.708-2.964-1.846-2.002-2.769-4.446-2.769-7.332s.923-5.317 2.769-7.293c1.872-2.002 4.108-3.003 6.708-3.003 2.73 0 4.849.949 6.357 2.847V9.5zm-9.282 13.728c1.014 1.014 2.301 1.521 3.861 1.521s2.847-.507 3.861-1.521c1.04-1.04 1.56-2.366 1.56-3.978s-.52-2.925-1.56-3.939c-1.014-1.04-2.301-1.56-3.861-1.56s-2.847.52-3.861 1.56c-1.014 1.014-1.521 2.327-1.521 3.939s.507 2.938 1.521 3.978zm22.97 5.304c-.65.65-1.43.975-2.34.975-.91 0-1.69-.325-2.34-.975-.65-.65-.975-1.43-.975-2.34 0-.91.325-1.69.975-2.34.65-.65 1.43-.975 2.34-.975.91 0 1.69.325 2.34.975.65.65.975 1.43.975 2.34 0 .91-.325 1.69-.975 2.34z" fill="#0F1435"/><path d="M155.788 29.546c-2.938 0-5.395-.988-7.371-2.964-1.95-1.976-2.925-4.42-2.925-7.332s.975-5.356 2.925-7.332c1.976-1.976 4.433-2.964 7.371-2.964 1.898 0 3.627.455 5.187 1.365 1.56.91 2.743 2.132 3.549 3.666l-4.329 2.535a4.383 4.383 0 00-1.794-1.911c-.78-.468-1.664-.702-2.652-.702-1.508 0-2.756.507-3.744 1.521-.988.988-1.482 2.262-1.482 3.822 0 1.534.494 2.808 1.482 3.822.988.988 2.236 1.482 3.744 1.482 1.014 0 1.911-.221 2.691-.663a4.383 4.383 0 001.794-1.911l4.368 2.496c-.858 1.534-2.067 2.769-3.627 3.705-1.56.91-3.289 1.365-5.187 1.365zm26.614-2.964c-2.002 1.976-4.446 2.964-7.332 2.964s-5.33-.988-7.332-2.964c-1.976-2.002-2.964-4.446-2.964-7.332s.988-5.317 2.964-7.293c2.002-2.002 4.446-3.003 7.332-3.003s5.33 1.001 7.332 3.003c2.002 1.976 3.003 4.407 3.003 7.293s-1.001 5.33-3.003 7.332zm-11.115-3.471c1.014 1.014 2.275 1.521 3.783 1.521s2.769-.507 3.783-1.521c1.014-1.014 1.521-2.301 1.521-3.861s-.507-2.847-1.521-3.861c-1.014-1.014-2.275-1.521-3.783-1.521s-2.769.507-3.783 1.521c-.988 1.014-1.482 2.301-1.482 3.861s.494 2.847 1.482 3.861zm38.054-14.157c2.236 0 4.017.728 5.343 2.184 1.352 1.456 2.028 3.406 2.028 5.85V29h-5.031V17.339c0-1.17-.286-2.08-.858-2.73-.572-.65-1.378-.975-2.418-.975-1.144 0-2.041.377-2.691 1.131-.624.754-.936 1.846-.936 3.276V29h-5.031V17.339c0-1.17-.286-2.08-.858-2.73-.572-.65-1.378-.975-2.418-.975-1.118 0-2.015.377-2.691 1.131-.65.754-.975 1.846-.975 3.276V29h-5.031V9.5h5.031v2.067c1.17-1.742 2.977-2.613 5.421-2.613 2.392 0 4.16.936 5.304 2.808 1.3-1.872 3.237-2.808 5.811-2.808z" fill="#232E73"/></svg>
